src/22/actions/circular-arrow-shape.svg

<svg xmlns="http://www.w3.org/2000/svg" viewBox="0 0 22 22">
  <defs id="defs3051">
    <style type="text/css" id="current-color-scheme">
      .ColorScheme-Text {
        color:#5d656b;
      }
      </style>
  </defs>
 <path 
     style="fill:currentColor;fill-opacity:1;stroke:none" 
     d="M 9.5996094 4.9003906 C 5.9986094 4.9003906 3.0996094 7.7993901 3.0996094 11.400391 L 3.0996094 12.900391 L 4.0996094 12.900391 L 4.0996094 11.400391 C 4.0996094 8.3533901 6.5526094 5.9003906 9.5996094 5.9003906 C 12.646609 5.9003906 15.099609 8.3533901 15.099609 11.400391 L 15.099609 11.892578 L 15.099609 12.900391 L 15.099609 15.185547 L 12.806641 12.892578 L 12.099609 13.599609 L 15.392578 16.892578 L 15.599609 17.099609 L 15.806641 16.892578 L 19.099609 13.599609 L 18.392578 12.892578 L 16.099609 15.185547 L 16.099609 12.900391 L 16.099609 11.892578 L 16.099609 11.400391 C 16.099609 7.7993901 13.200609 4.9003906 9.5996094 4.9003906 z "
	 class="ColorScheme-Text"
     />
</svg>

<svg xmlns="http://www.w3.org/2000/svg" viewBox="0 0 22 22"><path d="M9.6 4.9a6.486 6.486 0 0 0-6.5 6.5v1.5h1v-1.5c0-3.047 2.453-5.5 5.5-5.5s5.5 2.453 5.5 5.5v3.786l-2.293-2.293-.707.707 3.293 3.293.207.207.207-.207L19.1 13.6l-.707-.707-2.293 2.293V11.4c0-3.6-2.9-6.5-6.5-6.5z" fill="currentColor" color="#5d656b"/></svg>
